icon-themes/sifr_svg/cmd/lc_connector.svg

<svg viewBox="0 0 24 24" xmlns="http://www.w3.org/2000/svg"><path d="m5 1c-2.1972955 0-4 1.8027043-4 4s1.8027045 4 4 4c1.8503027 0 3.4055918-1.284213 3.8554688-3h2.1445312v13 1h4.144531c.449877 1.715787 2.005166 3 3.855469 3 2.197296 0 4-1.802704 4-4s-1.802704-4-4-4c-1.850303 0-3.405592 1.284213-3.855469 3h-2.144531v-14h-1-3.1445312c-.449877-1.715787-2.0051661-3-3.8554688-3zm0 2c1.1164148 0 2 .8835841 2 2s-.8835852 2-2 2-2-.8835841-2-2 .8835852-2 2-2zm14 14c1.116415 0 2 .883584 2 2s-.883585 2-2 2-2-.883584-2-2 .883585-2 2-2z" fill="#555753"/></svg>

<svg xmlns="http://www.w3.org/2000/svg" viewBox="0 0 24 24">
 <path
     style="fill:#555753"
     d="M 5 1 C 2.8027045 1 1 2.8027043 1 5 C 1 7.1972957 2.8027045 9 5 9 C 6.8503027 9 8.4055918 7.715787 8.8554688 6 L 11 6 L 11 19 L 11 20 L 15.144531 20 C 15.594408 21.715787 17.149697 23 19 23 C 21.197296 23 23 21.197296 23 19 C 23 16.802704 21.197296 15 19 15 C 17.149697 15 15.594408 16.284213 15.144531 18 L 13 18 L 13 4 L 12 4 L 8.8554688 4 C 8.4055918 2.284213 6.8503027 1 5 1 z M 5 3 C 6.1164148 3 7 3.8835841 7 5 C 7 6.1164159 6.1164148 7 5 7 C 3.8835852 7 3 6.1164159 3 5 C 3 3.8835841 3.8835852 3 5 3 z M 19 17 C 20.116415 17 21 17.883584 21 19 C 21 20.116416 20.116415 21 19 21 C 17.883585 21 17 20.116416 17 19 C 17 17.883584 17.883585 17 19 17 z "
     />
 </svg>
